X:26
T:The Duke of Kent's March
M:2/4
L:1/8
K:D
V:1
%%MIDI channel 1
%%MIDI program 72
%%MIDI transpose 8
%%MIDI grace 1/8
%%MIDI ratio 3 1
|:A|d>e d>e|f>g fd|a>g g/f/e/d/|c/d/e/c/ A/B/c/A/|d>e d>e|f>g fe|g>f f/e/d/c/|ddd::
f|e/d/c/B/ AB|cdef|g>e f>d|e/d/c/B/ Af|e/d/c/B/ AB|cdef|g>e f>d|a2 g/f/g/e/|
d>e de|f>g fd|g>f f/e/d/c/|ddd::d/e/|f>g fe|d/e/c/d/ BF|B/^A/B/c/ d/c/d/e/|fFF d/e/|
f>g fe|d/e/c/d/ Bg|fedc|B2 A/B/A/G/|F>G Ff|edcB|AB/c/ dF|E2D:|
V:2
%%MIDI channel 1
%%MIDI program 72
%%MIDI transpose 8
%%MIDI grace 1/8
%%MIDI ratio 3 1
|:A|F>G F>A|d>e dA|f>d e/d/c/B/|AAAG|F>G F>G|d>e dA|e>d AA|dDD::
d|c/B/A/^G/ AA|ABcd|e>c d>B|(ce)(ed)|c/B/A/^G/ AB|ABcd|e>c d>B|(cA)(BG)|
F>G FA|d>e dA|(BA)(cA)|dDD::B/c/|d>e dc|B^A BF|B/^A/B/c/ d/c/d/e/|fFF B/c/|
d>e dc|B^ABe|dcB^A|B2 A/B/A/G/|D>E Dd|cBAG|FE F/E/D/C/|(C2D):|
